src/Icon/svgs/ClapOutline.svg

<svg width="24" height="24" viewBox="0 0 24 24" fill="none" xmlns="http://www.w3.org/2000/svg">
<path fill-rule="evenodd" clip-rule="evenodd" d="M10.7824 5.45719C11.0762 5.43205 11.3662 5.5379 11.5748 5.74645L16.6686 10.8403C17 9.00006 18.1692 7.70907 19.5086 7.70907H22L22 14.5001C22 15.2957 21.6839 16.0588 21.1213 16.6214L16.1299 21.6365C14.9597 22.8067 13.0633 22.8081 11.8914 21.6406L5.60103 15.4294C4.89956 14.7428 4.80001 13.6486 5.36607 12.8467L10.0507 5.87687C10.2208 5.63592 10.4885 5.48234 10.7824 5.45719ZM11 8.00011L7 14.0001L13.3015 20.2222C13.692 20.6127 14.3251 20.6128 14.7156 20.2223L19.7071 15.2072C19.8946 15.0196 20 14.7653 20 14.5001L20 9.70907H19.5086C19.0621 9.70907 18.6697 10.005 18.5471 10.4343L18.1686 12.3365L16.5 13.5001L11 8.00011Z" fill="#1B1C1D"/>
<path d="M7.36915 5.492L7.8095 6.00009L3.66417 12.2558C2.87598 13.4452 3.03465 15.0253 4.04363 16.0342L9.5095 21.5001C8.68107 22.3285 7.33792 22.3285 6.5095 21.5001L2.3181 17.3087C0.801306 15.7919 0.565981 13.4154 1.75585 11.6306L5.78141 5.59223C6.14773 5.04275 6.93664 4.99295 7.36915 5.492Z" fill="#1B1C1D"/>
<path d="M8 0.5L8.5 3.99998L6 2.00007L8 0.5Z" fill="#1B1C1D"/>
<path d="M10 0.500053L9.99999 3.99998L12 1.00005L10 0.500053Z" fill="#1B1C1D"/>
<path d="M13.5 2.00005L11.5 4.50004L14.5 3.99998L13.5 2.00005Z" fill="#1B1C1D"/>
<path fill-rule="evenodd" clip-rule="evenodd" d="M18.2426 7.00005C17.7122 7.00005 17.2035 7.21077 16.8284 7.58584L16.2071 8.20716L14.7929 6.79295L15.4142 6.17163C16.1644 5.42148 17.1818 5.00005 18.2426 5.00005H19V7.00005H18.2426Z" fill="#1B1C1D"/>
</svg>

<svg xmlns="http://www.w3.org/2000/svg" width="24" height="24" fill="#1b1c1d"  xmlns:v="https://vecta.io/nano"><path fill-rule="evenodd" d="M10.782 5.457a1 1 0 0 1 .792.289l5.094 5.094C17 9 18.169 7.709 19.509 7.709H22V14.5a3 3 0 0 1-.879 2.121l-4.991 5.015a3 3 0 0 1-4.238.004l-6.29-6.211a2 2 0 0 1-.235-2.583l4.685-6.97a1 1 0 0 1 .732-.42zM11 8l-4 6 6.302 6.222a1 1 0 0 0 1.414 0l4.992-5.015A1 1 0 0 0 20 14.5V9.709h-.491a1 1 0 0 0-.962.725l-.378 1.902L16.5 13.5 11 8z"/><path d="M7.369 5.492L7.81 6l-4.145 6.256a3 3 0 0 0 .379 3.778L9.51 21.5a2.12 2.12 0 0 1-3 0l-4.191-4.191a4.5 4.5 0 0 1-.562-5.678l4.026-6.038a1 1 0 0 1 1.588-.1zM8 .5L8.5 4 6 2 8 .5zm2 0V4l2-3-2-.5zM13.5 2l-2 2.5 3-.5-1-2z"/><path fill-rule="evenodd" d="M18.243 7a2 2 0 0 0-1.414.586l-.621.621-1.414-1.414.621-.621A4 4 0 0 1 18.243 5H19v2h-.757z"/></svg>
